vue-pc-template/src/icons/svg/bj.svg

<?xml version="1.0" standalone="no"?><!DOCTYPE svg PUBLIC "-//W3C//DTD SVG 1.1//EN" "http://www.w3.org/Graphics/SVG/1.1/DTD/svg11.dtd"><svg t="1555407663563" class="icon" style="" viewBox="0 0 1024 1024" version="1.1" xmlns="http://www.w3.org/2000/svg" p-id="9317" xmlns:xlink="http://www.w3.org/1999/xlink" width="250" height="250"><defs><style type="text/css"></style></defs><path d="M714.666667 298.666667h-362.666667c-17.066667 0-32-14.933333-32-32s14.933333-32 32-32h362.666667c17.066667 0 32 14.933333 32 32s-14.933333 32-32 32zM714.666667 533.333333h-362.666667c-17.066667 0-32-14.933333-32-32s14.933333-32 32-32h362.666667c17.066667 0 32 14.933333 32 32s-14.933333 32-32 32zM586.666667 768h-234.666667c-17.066667 0-32-14.933333-32-32s14.933333-32 32-32h234.666667c17.066667 0 32 14.933333 32 32s-14.933333 32-32 32zM793.6 936.533333H704v-49.066666h89.6v-40.533334H704v-46.933333h53.333333L704 701.866667h64l55.466667 96 53.333333-96h59.733333l-53.333333 98.133333H938.666667v46.933333h-85.333334v40.533334h85.333334v49.066666h-85.333334V1002.666667h-59.733333v-66.133334z" fill="" p-id="9318"></path><path d="M597.333333 1002.666667H181.333333c-64 0-117.333333-53.333333-117.333333-117.333334v-746.666666C64 74.666667 117.333333 21.333333 181.333333 21.333333h661.333334c64 0 117.333333 53.333333 117.333333 117.333334V576c0 17.066667-14.933333 32-32 32S896 593.066667 896 576V138.666667C896 108.8 872.533333 85.333333 842.666667 85.333333h-661.333334C151.466667 85.333333 128 108.8 128 138.666667v746.666666C128 915.2 151.466667 938.666667 181.333333 938.666667H597.333333c17.066667 0 32 14.933333 32 32S614.4 1002.666667 597.333333 1002.666667z" fill="" p-id="9319"></path></svg>

<svg class="icon" viewBox="0 0 1024 1024" xmlns="http://www.w3.org/2000/svg" width="250" height="250"><defs><style/></defs><path d="M714.667 298.667H352c-17.067 0-32-14.934-32-32s14.933-32 32-32h362.667c17.066 0 32 14.933 32 32s-14.934 32-32 32zm0 234.666H352c-17.067 0-32-14.933-32-32s14.933-32 32-32h362.667c17.066 0 32 14.934 32 32s-14.934 32-32 32zM586.667 768H352c-17.067 0-32-14.933-32-32s14.933-32 32-32h234.667c17.066 0 32 14.933 32 32s-14.934 32-32 32zM793.6 936.533H704v-49.066h89.6v-40.534H704V800h53.333L704 701.867h64l55.467 96 53.333-96h59.733L883.2 800h55.467v46.933h-85.334v40.534h85.334v49.066h-85.334v66.134H793.6v-66.134z"/><path d="M597.333 1002.667h-416c-64 0-117.333-53.334-117.333-117.334V138.667c0-64 53.333-117.334 117.333-117.334h661.334c64 0 117.333 53.334 117.333 117.334V576c0 17.067-14.933 32-32 32s-32-14.933-32-32V138.667c0-29.867-23.467-53.334-53.333-53.334H181.333C151.467 85.333 128 108.8 128 138.667v746.666c0 29.867 23.467 53.334 53.333 53.334h416c17.067 0 32 14.933 32 32s-14.933 32-32 32z"/></svg>
